icons/mobile/20/svg/reader-view-20.svg

<!-- This Source Code Form is subject to the terms of the Mozilla Public
   - License, v. 2.0. If a copy of the MPL was not distributed with this
   - file, You can obtain one at http://mozilla.org/MPL/2.0/. -->
<svg width="20" height="20" viewBox="0 0 20 20" fill="none" xmlns="http://www.w3.org/2000/svg">
    <path fill-rule="evenodd" clip-rule="evenodd" d="M6 4.5C5.72421 4.5 5.5 4.72421 5.5 5V16C5.5 16.2758 5.72421 16.5 6 16.5H14C14.2758 16.5 14.5 16.2758 14.5 16V5C14.5 4.72421 14.2758 4.5 14 4.5H6ZM4 5C4 3.89579 4.89579 3 6 3H14C15.1042 3 16 3.89579 16 5V16C16 17.1042 15.1042 18 14 18H6C4.89579 18 4 17.1042 4 16V5ZM7.5 6.5H12.5V8H7.5V6.5ZM7.5 9.5H12.5V11H7.5V9.5ZM7.5 12.5H10.5V14H7.5V12.5Z" fill="black" />
</svg>

<!-- This Source Code Form is subject to the terms of the Mozilla Public
   - License, v. 2.0. If a copy of the MPL was not distributed with this
   - file, You can obtain one at http://mozilla.org/MPL/2.0/. -->
<svg xmlns="http://www.w3.org/2000/svg" width="20" height="20" fill="none" viewBox="0 0 20 20">
    <path fill="#000" fill-rule="evenodd" d="M6 4.5a.5.5 0 0 0-.5.5v11a.5.5 0 0 0 .5.5h8a.5.5 0 0 0 .5-.5V5a.5.5 0 0 0-.5-.5zM4 5a2 2 0 0 1 2-2h8a2 2 0 0 1 2 2v11a2 2 0 0 1-2 2H6a2 2 0 0 1-2-2zm3.5 1.5h5V8h-5zm0 3h5V11h-5zm0 3h3V14h-3z" clip-rule="evenodd" />
</svg>
